X:1
T:Hell Up Coal Holler
M:2/4
L:1/8
S:Gerry Milnes
Z:AK/Fiddler's Companion
K:C
(3G,A,B,|Cc/c/ A/G/E/D/|Cc/c/ A/G/E/G/|D/E/G B>A|B/A/G/B/ A/G/E/D/|!
Cc/c/ A/G/E/D/|Cc/c/ A/G/E/G/|D/E/G/A/ B/A/B|[G>c>]B [Gc]:|!
|:([de]|[ee])e/g/|e/d/c/d/|e/d/c/e/ d/c/A/G/|D/_E/=E/G/ B/A/B/d/|!
e/d/e/g/ b/g/e/g/|ee/g/ e/d/c/d/|e/d/c/e/ d/c/A/G/|D/E/G/A/ B/A/B|!
[G>c>]B [Gc]:||
